icons/loss-smell_fill.svg

<svg width="48" height="48" viewBox="0 0 48 48" fill="none" xmlns="http://www.w3.org/2000/svg">
<path fill-rule="evenodd" clip-rule="evenodd" d="M14 4C8.47715 4 4 8.47715 4 14C4 19.5228 8.47715 24 14 24C19.5228 24 24 19.5228 24 14C24 8.47715 19.5228 4 14 4ZM6 14C6 9.58172 9.58172 6 14 6C15.8487 6 17.551 6.62708 18.9056 7.68014L7.68014 18.9056C6.62708 17.551 6 15.8487 6 14ZM9.09436 20.3199L20.3199 9.09436C21.3729 10.449 22 12.1513 22 14C22 18.4183 18.4183 22 14 22C12.1513 22 10.449 21.3729 9.09436 20.3199Z" fill="black"/>
<path d="M30.5821 31.1869C31.0311 31.5083 31.1346 32.133 30.8132 32.5821C30.2266 33.4015 29.477 34.1469 28.5973 34.8021C28.1543 35.1319 27.5278 35.0402 27.198 34.5973C26.8681 34.1543 26.9598 33.5278 27.4027 33.198C28.1377 32.6506 28.7349 32.0493 29.1869 31.4179C29.5083 30.9689 30.133 30.8654 30.5821 31.1869Z" fill="black"/>
<path fill-rule="evenodd" clip-rule="evenodd" d="M25.5547 37.8321C26.0142 37.5257 26.1384 36.9048 25.8321 36.4453C25.5269 35.9875 24.9095 35.8626 24.4506 36.1645L24.4486 36.1657C24.4441 36.1686 24.4342 36.1748 24.4189 36.1839C24.3882 36.2021 24.3363 36.2319 24.264 36.2697C24.1192 36.3452 23.8939 36.4518 23.5958 36.5602C22.9995 36.777 22.1155 37 21 37C20.4477 37 20 37.4477 20 38C20 38.5523 20.4477 39 21 39C22.3845 39 23.5005 38.723 24.2792 38.4398C24.6686 38.2982 24.9745 38.1548 25.1891 38.0428C25.2965 37.9868 25.3813 37.9385 25.4425 37.9021C25.4463 37.8998 25.45 37.8976 25.4536 37.8954C25.4644 37.8889 25.4744 37.8828 25.4837 37.8772L25.5165 37.8567L25.5401 37.8416L25.5486 37.8361L25.5519 37.8339L25.5547 37.8321ZM25 37L25.5547 37.8321C25.555 37.8318 25.5547 37.8321 25 37Z" fill="black"/>
<path fill-rule="evenodd" clip-rule="evenodd" d="M36.9999 40.5129C37.007 39.9607 36.5651 39.5072 36.0129 39.5001C35.4607 39.493 35.0072 39.9349 35.0001 40.4871C34.9889 41.3504 35.1272 42.0717 35.2704 42.5825C35.3422 42.8385 35.4158 43.0437 35.474 43.1899C35.5032 43.2632 35.5285 43.3219 35.548 43.3651C35.5492 43.3678 35.5504 43.3704 35.5516 43.373C35.5598 43.3911 35.5668 43.4062 35.5726 43.4182L35.5811 43.4359L35.5843 43.4425L35.5857 43.4452L35.5869 43.4476C35.834 43.9414 36.4348 44.1414 36.9287 43.8943C37.4205 43.6481 37.6209 43.0512 37.3784 42.5585L37.3713 42.5431C37.3635 42.5258 37.3499 42.4947 37.3324 42.4507C37.2973 42.3626 37.2471 42.224 37.1961 42.0425C37.094 41.6783 36.9917 41.1496 36.9999 40.5129ZM35.5869 43.4476L36.4811 43L35.6992 43.3915C35.5869 43.4477 35.5869 43.4477 35.5869 43.4476Z" fill="black"/>
<path d="M36.8162 33.0513C37.3398 33.2258 37.6229 33.7917 37.449 34.3154L37.4461 34.3242L37.4334 34.3645C37.4218 34.4015 37.4045 34.4585 37.3834 34.5325C37.341 34.6808 37.2837 34.8957 37.2262 35.1544C37.1095 35.6793 37 36.3508 37 37C37 37.5523 36.5523 38 36 38C35.4477 38 35 37.5523 35 37C35 36.1492 35.1405 35.3207 35.2738 34.7206C35.3413 34.4168 35.409 34.1629 35.4604 33.9831C35.4861 33.893 35.5079 33.8211 35.5237 33.7703C35.5251 33.7656 35.5266 33.761 35.5279 33.7566C35.5339 33.7375 35.5389 33.722 35.5427 33.7102L35.5484 33.6926L35.5502 33.6871L35.5512 33.6841L36.4909 33.997C35.5513 33.6838 35.5513 33.6839 35.5512 33.6841C35.7259 33.1601 36.2923 32.8767 36.8162 33.0513Z" fill="black"/>
<path d="M29.8321 40.5547C30.1384 40.0952 30.0142 39.4743 29.5547 39.1679L26.5 42.5C27.0547 43.3321 27.0552 43.3317 27.0554 43.3316L27.0562 43.331L27.0583 43.3296L27.0641 43.3257L27.0821 43.3135C27.0969 43.3034 27.1171 43.2894 27.1424 43.2716C27.1928 43.236 27.2634 43.1853 27.35 43.1203C27.523 42.9906 27.7617 42.8029 28.0335 42.5651C28.5716 42.0942 29.266 41.4038 29.8321 40.5547Z" fill="black"/>
<path d="M33.449 33.1065C33.9425 33.3544 34.1415 33.9555 33.8935 34.449C33.7341 34.7663 33.6236 35.0491 33.4982 35.3698C33.4317 35.5399 33.361 35.7206 33.2767 35.9229C33.0497 36.4673 32.7592 37.0616 32.2625 37.647C31.9052 38.0681 31.2742 38.1198 30.853 37.7625C30.4319 37.4052 30.3802 36.7742 30.7375 36.353C31.0441 35.9917 31.2402 35.61 31.4308 35.1531C31.4811 35.0324 31.5352 34.8945 31.5935 34.746C31.7368 34.3808 31.9056 33.9508 32.1065 33.551C32.3544 33.0575 32.9555 32.8585 33.449 33.1065Z" fill="black"/>
<path d="M38.4576 6.2008C37.1615 8.9766 33.7187 15.8079 30.0621 18.5327C24.5941 22.5894 27.3281 28 31.4291 28H31.9999C31.9999 27.9599 32.0024 27.9195 32.0074 27.8787C32.1227 26.9348 32.6457 25.8815 33.7521 25.2463C34.8549 24.6132 36.3648 24.4929 38.2747 25.0386C38.8057 25.1903 39.1132 25.7438 38.9615 26.2748C38.8098 26.8059 38.2563 27.1134 37.7253 26.9616C36.1351 26.5073 35.2284 26.7049 34.7478 26.9808C34.3166 27.2283 34.0897 27.6172 34.0122 28H34.882C35.6172 28 36.3424 28.1712 37 28.5C37.6576 28.8288 38.3828 29 39.118 29H40C40 29 44.5486 29.4549 44.969 24.7247C44.9608 24.0885 44.7679 23.2737 44.331 22.5429C43.7658 21.5976 42.876 20.9219 41.6119 20.9292L41.6003 18.9292C42.8941 18.9217 43.9475 19.3601 44.7632 20.0201C44.4045 16.2149 44.1687 12.3252 45.0924 8.63049L45.3787 7.48507C45.6943 6.22278 44.7396 5 43.4384 5H40.3213C39.52 5 38.7967 5.47473 38.4576 6.2008Z" fill="black"/>
</svg>

<svg
  xmlns="http://www.w3.org/2000/svg"
  width="24"
  height="24"
  viewBox="0 0 24 24"
  fill="none"
  stroke="currentColor"
  stroke-width="2"
  stroke-linecap="round"
  stroke-linejoin="round"
>
  <path
    fill-rule="evenodd"
    d="M14 4C8.477 4 4 8.477 4 14s4.477 10 10 10 10-4.477 10-10S19.523 4 14 4M6 14a8 8 0 0 1 12.906-6.32L7.68 18.906A7.97 7.97 0 0 1 6 14m3.094 6.32L20.32 9.094A8 8 0 0 1 9.094 20.32"
    clip-rule="evenodd"
  />
  <path d="M30.582 31.187a1 1 0 0 1 .231 1.395c-.586.82-1.336 1.565-2.216 2.22a1 1 0 0 1-1.194-1.604c.735-.547 1.332-1.149 1.784-1.78a1 1 0 0 1 1.395-.231" />
  <path
    fill-rule="evenodd"
    d="M25.555 37.832a1 1 0 0 0-1.104-1.668l-.002.002-.03.018a3 3 0 0 1-.155.086 6 6 0 0 1-.668.29C23 36.777 22.116 37 21 37a1 1 0 1 0 0 2c1.384 0 2.5-.277 3.28-.56.389-.142.694-.285.91-.397q.16-.086.252-.14l.012-.008.03-.018.032-.02.024-.015.009-.006.003-.002zM25 37l.555.832z"
    clip-rule="evenodd"
  />
  <path
    fill-rule="evenodd"
    d="M37 40.513a1 1 0 0 0-2-.026 7.4 7.4 0 0 0 .27 2.096 6 6 0 0 0 .278.782l.004.008.02.045.01.018.002.007.002.002v.003a1 1 0 0 0 1.792-.89l-.007-.015-.039-.092a4 4 0 0 1-.136-.409 5.5 5.5 0 0 1-.196-1.53m-1.413 2.935L36.48 43l-.782.392z"
    clip-rule="evenodd"
  />
  <path d="M36.816 33.051a1 1 0 0 1 .633 1.264l-.003.01-.013.04-.05.167c-.042.149-.1.364-.157.622C37.11 35.68 37 36.351 37 37a1 1 0 1 1-2 0c0-.85.14-1.68.274-2.28a13 13 0 0 1 .25-.95l.004-.013q.008-.03.015-.047l.005-.017.002-.006.001-.003.94.313-.94-.313a1 1 0 0 1 1.265-.633" />
  <path d="M29.832 40.555a1 1 0 0 0-.277-1.387L26.5 42.5l.555.832.001-.001.002-.001.006-.004.018-.013a5 5 0 0 0 .268-.193c.173-.13.412-.317.683-.555.539-.47 1.233-1.161 1.8-2.01" />
  <path d="M33.449 33.107a1 1 0 0 1 .445 1.342c-.16.317-.27.6-.396.92-.066.17-.137.352-.221.554-.227.544-.518 1.139-1.014 1.724a1 1 0 0 1-1.525-1.294c.306-.361.502-.743.693-1.2q.075-.182.162-.407c.144-.365.313-.795.513-1.195a1 1 0 0 1 1.343-.445" />
  <path d="M38.458 6.2c-1.297 2.777-4.74 9.608-8.396 12.333C24.594 22.589 27.328 28 31.43 28H32q0-.06.008-.121a3.5 3.5 0 0 1 1.745-2.633c1.103-.633 2.613-.753 4.523-.207a1 1 0 0 1-.55 1.923c-1.59-.455-2.497-.257-2.977.019A1.5 1.5 0 0 0 34.012 28h.87c.735 0 1.46.171 2.118.5s1.383.5 2.118.5H40s4.549.455 4.969-4.275a4.5 4.5 0 0 0-.638-2.182c-.565-.945-1.455-1.621-2.72-1.614l-.01-2c1.293-.007 2.346.431 3.162 1.091-.358-3.805-.594-7.695.33-11.39l.286-1.145A2 2 0 0 0 43.439 5H40.32c-.801 0-1.524.475-1.863 1.2" />
</svg>
